X:445
T:Hunter's House, The
M:C|
L:1/8
Q:200
C:Ed Reavy
S:THSP
R:reel
N:
D:
Z:
K:G
"G"d3B "D"cAFA|"G"~G2BG DGBG|BddB cAFA|"C"GBAG "D"FGEF|
"G"DG~G2 AG~G2|BGAF GABc|"C"defg "D"agfd|1 cAFA "G"GABc:|2 cAFA "G"G2Bc|
